assets/img/pricing_table/special_dinner.svg

<?xml version="1.0" encoding="UTF-8"?>
<svg width="50px" height="51px" viewBox="0 0 50 51" version="1.1" xmlns="http://www.w3.org/2000/svg" xmlns:xlink="http://www.w3.org/1999/xlink">
    <!-- Generator: Sketch 48.2 (47327) - http://www.bohemiancoding.com/sketch -->
    <title>Special Dinner</title>
    <desc>Created with Sketch.</desc>
    <defs></defs>
    <g id="Desktop---Version-2-Copy" stroke="none" stroke-width="1" fill="none" fill-rule="evenodd" transform="translate(-155.000000, -4893.000000)">
        <g id="Pricing-section" transform="translate(0.000000, 4371.000000)">
            <g id="Cards" transform="translate(137.000000, 184.000000)">
                <g id="Early-Bird">
                    <g id="Text" transform="translate(19.000000, 144.000000)">
                        <g id="Special-Dinner" transform="translate(0.000000, 195.000000)">
                            <path d="M22.8378614,13.4615608 C22.8378614,13.8442662 23.1572277,14.1548677 23.5507327,14.1548677 C23.9442376,14.1548677 24.263604,13.8442662 24.263604,13.4615608 C24.263604,13.2437084 24.3288713,13.168215 24.503604,12.9662315 C24.7315644,12.7020046 25.0769109,12.3023516 25.0769109,11.5793095 C25.0769109,10.8559593 24.7318812,10.4563064 24.503604,10.1914631 C24.3288713,9.98947973 24.263604,9.91429444 24.263604,9.69551759 C24.263604,9.47735701 24.3288713,9.40186359 24.503604,9.19988017 C24.7315644,8.9356532 25.0769109,8.535384 25.0769109,7.81203377 C25.0769109,7.42932834 24.7575446,7.11872684 24.3640396,7.11872684 C23.9703762,7.11872684 23.6510099,7.42932834 23.6510099,7.81203377 C23.6510099,8.03050248 23.5857426,8.10630404 23.4111683,8.30797932 C23.1828911,8.57251443 22.8378614,8.9724755 22.8378614,9.69551759 C22.8378614,10.4188678 23.1828911,10.8185207 23.4111683,11.083364 C23.5857426,11.2853474 23.6510099,11.361149 23.6510099,11.5793095 C23.6510099,11.797162 23.5857426,11.8726554 23.411802,12.0743307 C23.1832079,12.3385577 22.8378614,12.7380565 22.8378614,13.4615608 Z" id="Shape" fill="#AE8A61" fill-rule="nonzero"></path>
                            <path d="M26.0063366,15.0022429 C26.0063366,15.3849483 26.325703,15.6955498 26.7192079,15.6955498 C27.1127129,15.6955498 27.4320792,15.3849483 27.4320792,15.0022429 C27.4320792,14.7843904 27.4973465,14.708897 27.6719208,14.5069136 C27.8998812,14.2426866 28.2452277,13.8430337 28.2452277,13.1199916 C28.2452277,12.3966414 27.900198,11.9969885 27.6719208,11.7321452 C27.4973465,11.5301618 27.4320792,11.4549765 27.4320792,11.2361997 C27.4320792,11.0180391 27.4973465,10.9425456 27.6719208,10.7405622 C27.8998812,10.4763353 28.2452277,10.0760661 28.2452277,9.35271583 C28.2452277,8.97001041 27.9258614,8.6594089 27.5323564,8.6594089 C27.1388515,8.6594089 26.8194851,8.97001041 26.8194851,9.35271583 C26.8194851,9.57118455 26.7542178,9.6469861 26.5796436,9.84866139 C26.3513663,10.1131965 26.0063366,10.5131576 26.0063366,11.2361997 C26.0063366,11.9595499 26.3513663,12.3592028 26.5796436,12.6240461 C26.7542178,12.8260295 26.8194851,12.901831 26.8194851,13.1199916 C26.8194851,13.3378441 26.7542178,13.4133375 26.5802772,13.6150128 C26.3516832,13.8792397 26.0063366,14.2787386 26.0063366,15.0022429 Z" id="Shape" fill="#AE8A61" fill-rule="nonzero"></path>
                            <path d="M19.6695446,15.0022429 C19.6695446,15.3849483 19.9889109,15.6955498 20.3824158,15.6955498 C20.7759208,15.6955498 21.0952871,15.3849483 21.0952871,15.0022429 C21.0952871,14.7843904 21.1605545,14.708897 21.3351287,14.5069136 C21.5630891,14.2426866 21.9084356,13.8430337 21.9084356,13.1199916 C21.9084356,12.3966414 21.5634059,11.9969885 21.3351287,11.7321452 C21.1605545,11.5301618 21.0952871,11.4549765 21.0952871,11.2361997 C21.0952871,11.0180391 21.1605545,10.9425456 21.3351287,10.7405622 C21.5630891,10.4763353 21.9084356,10.0760661 21.9084356,9.35271583 C21.9084356,8.97001041 21.5890693,8.6594089 21.1955644,8.6594089 C20.8020594,8.6594089 20.4826931,8.97001041 20.4826931,9.35271583 C20.4826931,9.57118455 20.4174257,9.6469861 20.2428515,9.84866139 C20.0145743,10.1131965 19.6695446,10.5131576 19.6695446,11.2361997 C19.6695446,11.9595499 20.0145743,12.3592028 20.2428515,12.6240461 C20.4174257,12.8260295 20.4826931,12.901831 20.4826931,13.1199916 C20.4826931,13.3378441 20.4174257,13.4133375 20.2434851,13.6150128 C20.0148911,13.8792397 19.6695446,14.2787386 19.6695446,15.0022429 Z" id="Shape" fill="#AE8A61" fill-rule="nonzero"></path>
                            <g id="Group" transform="translate(8.000000, 15.526383)" fill="#AE8A61" fill-rule="nonzero">
                                <path d="M0.0172673267,16.6533865 L0.0172673267,18.7239091 C0.0172673267,19.1066145 0.336633663,19.417216 0.730138614,19.417216 L2.07413861,19.417216 L3.2999604,21.2578689 C3.43144554,21.4549221 3.65671287,21.5741709 3.89829703,21.5741709 L28.0156832,21.5741709 C28.2572673,21.5741709 28.4825347,21.4550762 28.613703,21.2578689 L29.8398416,19.417216 L31.1838416,19.417216 C31.5773465,19.417216 31.8967129,19.1066145 31.8967129,18.7239091 L31.8967129,16.6533865 C31.8967129,16.2706811 31.5773465,15.9600796 31.1838416,15.9600796 L29.4266931,15.9600796 C29.1024158,9.70829988 24.2555248,4.59739527 18.0120396,3.66451229 C18.2331881,3.31092575 18.3629307,2.89771482 18.3629307,2.45430653 C18.3629307,1.1639853 17.2836436,0.114318609 15.9569109,0.114318609 C14.6300198,0.114318609 13.5502574,1.1639853 13.5502574,2.45430653 C13.5502574,2.89786889 13.6801584,3.31107982 13.9014653,3.66451229 C7.65766337,4.59739527 2.81013861,9.70829988 2.48586139,15.9600796 L0.730138614,15.9600796 C0.336633663,15.9600796 0.0172673267,16.270527 0.0172673267,16.6533865 Z M16.9376634,2.45430653 C16.9376634,2.97998724 16.4977426,3.40768059 15.9573861,3.40768059 C15.4167129,3.40768059 14.9764752,2.98014131 14.9764752,2.45430653 C14.9764752,1.92893394 15.4167129,1.50093247 15.9573861,1.50093247 C16.4977426,1.50093247 16.9376634,1.92893394 16.9376634,2.45430653 Z M3.77283168,19.417216 L28.1411485,19.417216 L27.628198,20.1875571 L4.28594059,20.1875571 L3.77283168,19.417216 Z M1.4430099,17.3466934 L3.18273267,17.3466934 C3.57623762,17.3466934 3.89560396,17.0360919 3.89560396,16.6533865 C3.89560396,16.6449127 3.89465347,16.6239595 3.89465347,16.6151776 C3.89465347,10.160336 9.30550495,4.89767421 15.9567525,4.89767421 C22.6076832,4.89767421 28.0186931,10.1601819 28.0186931,16.6287356 C28.0186931,17.011441 28.3377426,17.3466934 28.7312475,17.3466934 L30.4712871,17.3466934 L30.4712871,18.0306022 L1.4430099,18.0306022 L1.4430099,17.3466934 Z" id="Shape"></path>
                                <path d="M15.8751683,6.53880874 C16.7192079,6.53880874 16.7847921,7.08128289 16.7847921,7.24736842 C16.7847921,7.61744025 16.460198,7.92557666 16.0806337,7.94375671 C16.0552871,7.94498926 16.0156832,7.94560553 15.9569109,7.94560553 C15.928396,7.94560553 15.9000396,7.94375671 15.8721584,7.94052128 C15.1337822,7.85408902 15.1299802,7.30283298 15.1371089,7.19329048 C15.159604,6.82707035 15.4981386,6.53880874 15.8751683,6.53880874 Z" id="Shape"></path>
                                <path d="M18.5916832,6.89054646 C22.3293465,7.85100765 25.1702178,10.7280773 26.005703,14.3989064 C26.0904554,14.7732922 25.8479208,15.1430559 25.463604,15.2257905 C25.4116436,15.2368834 25.36,15.2419676 25.3088317,15.2419676 C24.9815446,15.2419676 24.6868911,15.0222664 24.6132277,14.6985691 C23.9046337,11.5846966 21.3981782,9.04611473 18.2273267,8.23124799 C17.846495,8.13372281 17.6196436,7.75394468 17.7202376,7.38387285 C17.8206733,7.01349288 18.2092673,6.79348349 18.5916832,6.89054646 Z" id="Shape"></path>
                            </g>
                            <polygon id="Shape" fill="#AE8A61" fill-rule="nonzero" points="21.76 32.4184211 24 30.8429062 26.24 32.4184211 25.36 29.8188215 27.6 28.2433066 24.88 28.2433066 24 25.6437071 23.12 28.2433066 20.4 28.2433066 22.64 29.8188215"></polygon>
                            <path d="M24,0.342105263 C10.7519349,0.342105263 0,11.1648421 0,24.5 C0,37.8352729 10.7519349,48.6578947 24,48.6578947 C37.2480651,48.6578947 48,37.8352729 48,24.5 C48,11.1648421 37.2480651,0.342105263 24,0.342105263 Z" id="Path" stroke="#AE8A61" stroke-width="1.84799991" stroke-linecap="square"></path>
                        </g>
                    </g>
                </g>
            </g>
        </g>
    </g>
</svg>

<svg width="50" height="51" viewBox="0 0 50 51" xmlns="http://www.w3.org/2000/svg"><title>Special Dinner</title><g transform="translate(1 1)" fill="none" fill-rule="evenodd"><path d="M22.838 13.462c0 .382.32.693.713.693.393 0 .713-.31.713-.693 0-.218.065-.294.24-.496.228-.264.573-.664.573-1.387s-.345-1.123-.573-1.388c-.175-.202-.24-.277-.24-.495 0-.219.065-.294.24-.496.228-.264.573-.665.573-1.388a.704.704 0 0 0-.713-.693.704.704 0 0 0-.713.693c0 .219-.065.294-.24.496-.228.265-.573.664-.573 1.388 0 .723.345 1.123.573 1.387.175.202.24.278.24.496 0 .218-.065.294-.24.495-.228.265-.573.664-.573 1.388zm3.168 1.54c0 .383.32.694.713.694.394 0 .713-.311.713-.694 0-.218.065-.293.24-.495.228-.264.573-.664.573-1.387s-.345-1.123-.573-1.388c-.175-.202-.24-.277-.24-.496 0-.218.065-.293.24-.495.228-.265.573-.665.573-1.388a.704.704 0 0 0-.713-.694.704.704 0 0 0-.713.694c0 .218-.065.294-.24.496-.228.264-.573.664-.573 1.387 0 .724.345 1.123.574 1.388.174.202.24.278.24.496 0 .218-.066.293-.24.495-.228.264-.574.664-.574 1.387zm-6.336 0c0 .383.319.694.712.694.394 0 .713-.311.713-.694 0-.218.066-.293.24-.495.228-.264.573-.664.573-1.387s-.345-1.123-.573-1.388c-.174-.202-.24-.277-.24-.496 0-.218.066-.293.24-.495.228-.265.573-.665.573-1.388a.704.704 0 0 0-.712-.694.704.704 0 0 0-.713.694c0 .218-.066.294-.24.496-.228.264-.573.664-.573 1.387 0 .724.345 1.123.573 1.388.174.202.24.278.24.496 0 .218-.066.293-.24.495-.228.264-.573.664-.573 1.387z" fill="#AE8A61" fill-rule="nonzero"/><g transform="translate(8 15.526)" fill="#AE8A61" fill-rule="nonzero"><path d="M.017 16.653v2.07c0 .384.32.694.713.694h1.344l1.226 1.84a.719.719 0 0 0 .598.317h24.118c.241 0 .467-.119.598-.316l1.226-1.84h1.344c.393 0 .713-.311.713-.694v-2.07a.704.704 0 0 0-.713-.694h-1.757c-.325-6.252-5.171-11.363-11.415-12.295.221-.354.35-.767.35-1.21 0-1.291-1.078-2.34-2.405-2.34-1.327 0-2.407 1.049-2.407 2.34 0 .443.13.856.351 1.21-6.243.932-11.09 6.043-11.415 12.295H.73a.703.703 0 0 0-.713.693zm16.92-14.199c0 .526-.44.954-.98.954s-.98-.428-.98-.954c0-.525.44-.953.98-.953s.98.428.98.953zM3.774 19.417H28.14l-.513.77H4.286l-.513-.77zm-2.33-2.07h1.74c.393 0 .713-.31.713-.694l-.001-.038c0-6.455 5.41-11.717 12.062-11.717 6.65 0 12.062 5.262 12.062 11.73 0 .383.319.719.712.719h1.74v.684H1.443v-.684z"/><path d="M15.875 6.539c.844 0 .91.542.91.708 0 .37-.325.679-.704.697a2.826 2.826 0 0 1-.124.002.736.736 0 0 1-.085-.005c-.738-.087-.742-.638-.735-.748.023-.366.361-.654.738-.654zm2.717.352c3.737.96 6.578 3.837 7.414 7.508a.694.694 0 0 1-.542.827.709.709 0 0 1-.85-.527c-.71-3.114-3.216-5.653-6.387-6.468a.691.691 0 0 1-.507-.847c.1-.37.49-.59.872-.493z"/></g><path fill="#AE8A61" fill-rule="nonzero" d="M21.76 32.4184211L24 30.8429062 26.24 32.4184211 25.36 29.8188215 27.6 28.2433066 24.88 28.2433066 24 25.6437071 23.12 28.2433066 20.4 28.2433066 22.64 29.8188215z"/><path d="M24 .342C10.752.342 0 11.165 0 24.5s10.752 24.158 24 24.158S48 37.835 48 24.5 37.248.342 24 .342z" stroke="#AE8A61" stroke-width="1.848" stroke-linecap="square"/></g></svg>
